X: 262
T:Repeal of the Union
T:Kate Gaynor's fancy
T:Gurtaglanna reel
T:Roll her in the rushes
R:Reel
O:Ireland
B:Krassen O'Neill's p92
B:O'Neill's 1179
B:Ceol Rince 1 n129- very similar
B:Roche
B:Kerr's Fourth p20
S:Richard Darsie's web page
Z:Transcription, arrangement(?), chords:Mike Long
M:C|
L:1/8
K:G
"D"AD ~D2 A3G|"C"E2cE dEcE|"D"AD~D2 A3G|"C"E2cE "D"EDDB:|\
"D"Adde fdec|"Am"ABcA "C"dBc2|
"D"Adde fdcA|"C"GEcE "D"EDDB|\
"D"Adde fdec|"Am"ABcd "C"efg2|"Am"afge d2ed|"C"cAGE "D"EDDB|]

